X:2182
T:As I walked out one morning
C:Traditional
O:Isle of Man 
Z:Clague collection
N:See KV338 Shooyl Ineenyn, this is the 2nd part of the tune.
B:Kiaull Vannin #182 
M:2/4 
L:1/4
K:D
A c/d/|A G/A/|d/D/ D|G A/>G/|A/B/ c|d2 |A c/d/|A G/A/|d/D/ D|G A/>A/|A/G/ E|D2|| 

